!!!!SEGMENT: pl-kozmzk--mzk-m-159--022_walczynski-franciszek--praeludia-organi-op-5-andante.krn
!!!cenid: 18xx:2765
!!!COM: Walczyński, Franciszek
!!!COM-rismID: pe30021989
!!!CDT: ~1852-1937
!!!CNT: Polish
!!!GTL: Praeludia organi op. 5
!!!OTL: 22. Andante
!!!PDT: 1894
!!!AGN: Secular; Prelude
!!!SMS-siglum: PL-KOZmzk
!!!SMS-shelfmark: mzk/m/159
!!!SMS-shelfwork: 022 G
!!!SMS-variant:
!!!SMS-altvar:
!!!NIFC-rismSourceID: 1001116724
!!!NIFC-islandoraID: pl-kozmzk:2265
!!!URL-pdf-islandora: https://repozytorium.nifc.pl/islandora/object/pl-kozmzk%3A2265/datastream/PDF/view
!!!URL-scan: https://polish.musicsources.pl/pl/lokalizacje/galeria/druki-muzyczne/7406 @EN{Scan on Polish Music Herritage in Open Access Website} @PL{Skany w portalu Dziedzictwo Muzyki Polskiej w otwartym dostępie}
!!!ONB-nifc: UWAGA: numeracja plików zgodna z numeracją źrodłową
!!!OMD: 22. Andante.
!!!AIN: 1 empty 1 organ
!!!key:
**kern	**kern	**dynam
*part2	*part1	*part1
*staff2	*staff1	*
*Iorgan	*Iempty	*
*I"[Organo]	*	*
*clefF4	*clefG2	*
*k[f#c#g#]	*k[f#c#g#]	*
*f#:	*f#:	*
*M4/4	*M4/4	*
*met(c)	*met(c)	*
=1	=1	=1
*^	*^	*
(4A/	(1F#\	(4cc#/	([1f#\	p
4c#/	.	4a/	.	.
4d/	.	4b/	.	.
4c#/	.	4a/	.	.
=2	=2	=2	=2	=2
2.B/	2C#\	2g#/	4f#\]	.
.	.	.	4e#X\	.
.	2D\)	2f#/)	2f#\)	.
4A/)	.	.	.	.
=3	=3	=3	=3	=3
!	!	!	!	!LO:HP:a
(4G#/	(2E\	(2g#/	2d\	<
4B/	.	.	.	.
4A/	4F#\	4a/	4c#\	.
4B/	4BB\	4dd/	8f#\L	.
.	.	.	8g#\J	[
=4	=4	=4	=4	=4
!	!	!	!	!LO:HP:a
4c#/	2E\	2cc#/)	2a\	>
4d#X/	.	.	.	.
2e/)	2E;\)	2b;/	2g#\	]
=5	=5	=5	=5	=5
2e#X/	(4c#\	(2cc#/	2g#\	f
.	4B\	.	.	.
2c#/	2A#X\)	4ff#/	2a\	.
.	.	4ffn/	.	.
=6	=6	=6	=6	=6
[2B/	(4B\	4dd/	2f#\	>
.	4An\	4dd#X/	.	.
2B/]	2G#X\)	4ee/	2e\	.
.	.	4ddn/)	.	]
=7	=7	=7	=7	=7
2.c#/	(4A\	(4cc#/	(4e\	p
.	4E#X\	4b/	4g#\	.
.	4F#\	4a/	4f#\	.
4d/	4BB\	4b/	[4g#\	.
=8	=8	=8	=8	=8
2.c#/	1C#\)	2a/	4g#\]	.
.	.	.	2f#\	.
.	.	2g#/)	.	.
[4B/	.	.	4e#X\)	.
=9	=9	=9	=9	=9
!LO:TX:b:i:t=Ped.	!	!	!	!LO:DY:a
(4B/]	[1FF#\	[1f#/	(2c#\	pp
4A/	.	.	.	.
4B/	.	.	4d\	.
4G#/	.	.	4B\	.
=10	=10	=10	=10	=10
4F#/	1FF#\_	(2.f#/]	4A#X\	<
4E/	.	.	4c#\	.
4D/	.	.	4B\	.
4BB/	.	4g#/	4d\	[
=11	=11	=11	=11	=11
1C#/)	1FF#\;]	1a#X/;)	1c#\)	> ]
*v	*v	*	*	*
*	*v	*v	*
==	==	==
*-	*-	*-
!!!system-decoration: {(s1,s2)}
!!!EED: Andrzej Borzym
!!!EEV: 2021-08-08
!!!ENC: Krzysztof Stępień
!!!END: 2021-07-26
